X:30
T: Heimkehr des Ehemannes
N: Q0011A
O: Suedosteuropa, Jugoslawien, Gottschee, Lichtenbach
N: Grundton in der zweigestrichenen Oktave, 2. und 4. Zeile = Refrain
N: auf sinnfreie Silben.
R: Ballade, Ehe, Heimkehr
M: 2/2
L: 1/8
K: C
G,2 | C2C2C2D2 | B,2A,2G,4 |
B,4C4 | D6
C2 | E2E2E2F2 | E2D2C4 |
E4D4 | CCB,B,C2

@@@ Tune index: 659
